!!!COM: Bach, Johann Sebastian
!!!CDT: 1685/3//-1750/7/28/
!!!OTL@@DE: Dank sei Gott in der Höhe
!!!OTL@EN:  Thanks be to God in the highest
!!!AGN: 4-Part Chorale
!!!SCT: BH 311
!!!SCT: BWV 287
**harm	**root	**kern	**kern	**kern	**kern
!	!	!bass	!tenor	!alto	!soprno
*	*Iorgan	*Iorgan	*Iorgan	*Iorgan	*Iorgan
*	*	*clefF4	*clefF4	*clefG2	*clefG2
*M4/4	*M4/4	*M4/4	*M4/4	*M4/4	*M4/4
*met(c)	*met(c)	*met(c)	*met(c)	*met(c)	*met(c)
*MM60	*MM60	*MM60	*MM60	*MM60	*MM60
*k[b-e-a-]	*k[b-e-a-]	*k[b-e-a-]	*k[b-e-a-]	*k[b-e-a-]	*k[b-e-a-]
*>[A,A,B]	*>[A,A,B]	*>[A,A,B]	*>[A,A,B]	*>[A,A,B]	*>[A,A,B]
*>A	*>A	*>A	*>A	*>A	*>A
*E-:	*E-:	*E-:	*E-:	*E-:	*E-:
Vb	4CC	4D	4B-	4f	4b-
=1	=1	=1	=1	=1	=1
I	4FF	8E-	4B-	8e-	4g
.	.	8D-	.	8f	.
viiob/IV	4AA	8C	4d-	4g	4b-
.	.	8BB-	.	.	.
IV	4BB-	4AA-	4e-	8a-	4cc
.	.	.	.	8g	.
V	4CC	4BB-	4d	8f	4b-
.	.	.	.	8g	.
=2	=2	=2	=2	=2	=2
IVb	4BB-	4C	4e-	8a-	2a-
.	.	.	.	8g	.
V7b	4CC	4D	4B-	4f	.
I;	4FF;	4E-;	4B-;	4e-;	4g;
I	4FF	4E-	4B-	4e-	4g
=3	=3	=3	=3	=3	=3
V7d	4CC	8A-	4B-	4d	4f
.	.	8G	.	.	.
I	4FF	8F	4B-	4e-	4g
.	.	8E-	.	.	.
V7	2CC	4B-	8B-	4e-	4f
.	.	.	16A-	.	.
.	.	.	16G	.	.
.	.	4BB-	4A-	4d	4f
=4	=4	=4	=4	=4	=4
I;	2.FF;	2.E-;	2.G;	2.B-;	2.e-;
=:|!	=:|!	=:|!	=:|!	=:|!	=:|!
*>B	*>B	*>B	*>B	*>B	*>B
Vb	4CC	8D	4F	8B-	4f
.	.	8C	.	8c	.
=5	=5	=5	=5	=5	=5
V	4CC	8BB-	4B-	4d	4f
.	.	8B-	.	.	.
I	4FF	8A-	4E-	4B-	4g
.	.	8G	.	.	.
ii	4GG	8F	8A-	4c	4a-
.	.	8E-	8G	.	.
Vb	4CC	4D	4F	4B-	8b-
.	.	.	.	.	8a-
=6	=6	=6	=6	=6	=6
I	4.FF	4E-	8G	4.B-	2g
.	.	.	8F	.	.
.	.	8GG	4E-	.	.
IV7	8BB-	8AA-	.	8c	.
V;	4CC;	4BB-;	4B-;	4d;	4f;
*B-:	*B-:	*B-:	*B-:	*B-:	*B-:
I	4CC	4BB-	4B-	4d	4f
!!linebreak: 2
=7	=7	=7	=7	=7	=7
IV	8FF	8E-	8B-	4e-	8g
viiob	8BB	8D	8c	.	8a
I	4CC	8C	4d	4f	4b-
.	.	8BB-	.	.	.
ii	4DD	4E-	4.c	4g	8cc
.	.	.	.	.	8b-
V7	4GG	4F	.	4f	4a
.	.	.	16d	.	.
.	.	.	16e-	.	.
=8	=8	=8	=8	=8	=8
I;	2.CC;	2.BB-;	2.d;	2.f;	2.b-;
*E-:	*E-:	*E-:	*E-:	*E-:	*E-:
V	4CC	4BB-	4F	4d	4b-
=9	=9	=9	=9	=9	=9
I	4FF	8E-	4G	4B-	4g
.	.	4D-	.	.	.
V7d/IV	4FF	.	4G	4e-	4b-
.	.	16C	.	.	.
.	.	16BB-	.	.	.
IV	4BB-	8AA-	4A-	4e-	4cc
.	.	8G	.	.	.
viio7/II	4FF#	8F	4G	4d-	4b-
.	.	8E	.	.	.
=10	=10	=10	=10	=10	=10
ii	2GG	8F	8A-	4.c	2a-
.	.	8G	8B-	.	.
.	.	8A-	4c	.	.
.	.	8B-	.	8d	.
V/II;	4DD;	4c;	4c;	4e;	4g;
vi	4DD	8c	4e-	4c	4g
.	.	8B-	.	.	.
=11	=11	=11	=11	=11	=11
V7d	4CC	8A-	4B-	4d	4f
.	.	8G	.	.	.
I	4FF	8F	4B-	4e-	4g
.	.	8E-	.	.	.
V7	2CC	4B-	8B-	4e-	4f
.	.	.	16A-	.	.
.	.	.	16G	.	.
.	.	4BB-	4A-	4d	4f
=12	=12	=12	=12	=12	=12
I;	2.FF;	2.E-;	2.G;	2.B-;	2.e-;
==|!	==|!	==|!	==|!	==|!	==|!
*-	*-	*-	*-	*-	*-
!!chor2scor: -l 2 -s 0.6 -o %b.pmx
!!!YEC: Copyright 2003 by Craig Stuart Sapp
!!!license: GNU General Public License (http://www.gnu.org/copyleft/gpl.html)
!!!SMA: 371 Bach Chorales, edited by Ludwig Erk, C.F. Peters
!!!PDT: 1850, 1865
!!!ONB: Harmony and Root analysis done manually by Craig Sapp
